!!!OTL: HERMEN FLA DERMEN
!!!ARE: Europa, Mitteleuropa, Deutschland
!!!SCT: E1279A
!!!YEM: Copyright 1995, estate of Helmut Schaffrath.
**kern
*ICvox
*Ivox
*M4/4
*k[f#]
*e:
=1
{4.gn
8f#
4e
4gn
=2
2a
4gn}
{8e
8f#
=3
4.gn
8f#
4e
4gn
=4
2a
4gn}
{8a
8b
=5
4.ccn
8b
4a
4gn
=6
2a
4gn}
{4gn
=7
4.a
8gn
4f#
4e
=8
2f#
4e}
{8f#
8gn
=9
4.a
8gn
4f#
4e
=10
2f#
4e
4r}
==
!!!AGN: Staende -, Soldaten -, Kriegs - Lied
!!!ONB: ESAC (Essen Associative Code) Database: ERK3
!!!AMT: simple quadruple
!!!AIN: vox
!!!EED: Helmut Schaffrath
!!!EEV: 1.0
*-
